public/static/svg/Player/backward-step-solid.svg

<svg xmlns="http://www.w3.org/2000/svg" viewBox="0 0 320 512"><!--! Font Awesome Pro 6.4.0 by @fontawesome - https://fontawesome.com License - https://fontawesome.com/license (Commercial License) Copyright 2023 Fonticons, Inc. --><path d="M267.5 440.6c9.5 7.9 22.8 9.7 34.1 4.4s18.4-16.6 18.4-29V96c0-12.4-7.2-23.7-18.4-29s-24.5-3.6-34.1 4.4l-192 160L64 241V96c0-17.7-14.3-32-32-32S0 78.3 0 96V416c0 17.7 14.3 32 32 32s32-14.3 32-32V271l11.5 9.6 192 160z"/></svg>

<svg width="320" height="512" viewBox="0 0 320 512" fill="none" xmlns="http://www.w3.org/2000/svg">
<path d="M267.5 440.6C277 448.5 290.3 450.3 301.6 445C312.9 439.7 320 428.4 320 416V96C320 83.6 312.8 72.3 301.6 67C290.4 61.7 277.1 63.4 267.5 71.4L75.5 231.4L64 241V96C64 78.3 49.7 64 32 64C14.3 64 0 78.3 0 96V416C0 433.7 14.3 448 32 448C49.7 448 64 433.7 64 416V271L75.5 280.6L267.5 440.6Z" fill="white"/>
</svg>
